X:87
T:B087-  The country lass
S:(2nd/2)
Q:1/4=120
L:1/4
M:3/4
K:D
A/2|A/2 d/2{d}c3/2 d/2|e/2 f/4e/4d3/2c/2|B/2 A/2{A}G3/2F/2|\
F/2(dd)A/2|A/2 d/2{d}c3/2 d/2|e/2 f/4e/4d3/2c/2|\
B/2 A/2{A}G3/2F/2|F/2(dd)||":s:"A/2||\
A/2 F/2{FG}A3/2B/2|B/2 A/2{GA}B3/2f/2|\
{ef}g/2 f/2{f}e3/2d/2|c/2(ee)A/2|\
G/2 F/2ED|g/2 f/2{f}e3/2d/2|\
e/2 d/2c3/2B/2|A/2(dd)|]

